src/images/GeneFit/Survey3.svg

<svg width="348" height="303" viewBox="0 0 348 303" fill="none" xmlns="http://www.w3.org/2000/svg">
<path d="M301.114 263.864L292.594 251H290.866V266H292.354V253.16L300.946 266.144H302.602V251H301.114V263.864ZM316.267 260.48C316.267 262.208 315.763 263.6 314.731 264.68C313.699 265.76 312.427 266.312 310.867 266.312C309.307 266.312 308.035 265.784 307.051 264.728C306.067 263.672 305.563 262.28 305.563 260.528C305.563 258.8 306.091 257.384 307.123 256.304C308.155 255.224 309.427 254.696 310.987 254.696C312.547 254.696 313.819 255.224 314.803 256.28C315.787 257.336 316.267 258.728 316.267 260.48ZM314.803 260.528C314.803 257.816 313.267 256.04 310.915 256.04C308.611 256.04 307.051 257.84 307.051 260.48C307.051 263.192 308.587 264.968 310.939 264.968C313.243 264.968 314.803 263.168 314.803 260.528Z" fill="#FBFBFB"/>
<path d="M12.3095 9.77527H10.6055L6.35748 17.2393L2.03748 9.77527H0.309484L5.54148 18.7513V24.7753H7.07748V18.7513L12.3095 9.77527ZM13.5571 19.3273V19.4473C13.6291 21.9673 15.1171 23.6953 17.3971 23.6953C18.5971 23.6953 19.6531 23.3833 20.5891 22.7833L20.8771 24.1513C19.8691 24.7753 18.6931 25.0873 17.3491 25.0873C14.2051 25.0873 12.0451 22.7593 12.0451 19.3753C12.0451 17.6473 12.5491 16.2313 13.5331 15.1273C14.5171 14.0233 15.7411 13.4713 17.2291 13.4713C19.6771 13.4713 21.2371 15.0553 21.2371 17.5273C21.2371 18.1753 21.1651 18.7513 20.9971 19.2793L13.5571 19.3273ZM13.6531 18.1513L19.7491 18.1273C19.7731 18.0553 19.7731 17.8873 19.7731 17.6473C19.7731 15.9193 18.8371 14.8153 17.1331 14.8153C15.2371 14.8153 13.9171 16.2313 13.6531 18.1513ZM30.6385 21.7753C30.6385 23.7673 28.9585 25.0873 26.7025 25.0873C25.3345 25.0873 24.1345 24.7513 23.1025 24.1033L23.5105 22.7353C24.5185 23.4073 25.5985 23.7433 26.7505 23.7433C28.1425 23.7433 29.2225 23.0473 29.2225 21.8953C29.2225 21.6313 29.1745 21.4153 29.0545 21.1993C28.9345 20.9833 28.7905 20.8153 28.6705 20.6953C28.5505 20.5753 28.3105 20.4553 27.9985 20.3113C27.6865 20.1673 27.4465 20.0713 27.3025 20.0233C27.1585 19.9753 26.8705 19.8793 26.4625 19.7593C24.5425 19.1833 23.2705 18.3673 23.2705 16.6393C23.2705 14.6713 24.8305 13.4713 26.9905 13.4713C28.1665 13.4713 29.2705 13.7353 30.3265 14.2873L29.8945 15.6313C28.9105 15.0793 27.9025 14.8153 26.8945 14.8153C25.5505 14.8153 24.6865 15.4393 24.6865 16.4953C24.6865 16.7353 24.7345 16.9513 24.8545 17.1433C24.9745 17.3593 25.0945 17.5033 25.2145 17.6233C25.3345 17.7433 25.5505 17.8873 25.8625 18.0073C26.1505 18.1273 26.3905 18.2233 26.5585 18.2953C26.7265 18.3673 27.0145 18.4393 27.3985 18.5593C29.3905 19.1353 30.6385 19.9513 30.6385 21.7753Z" fill="#FBFBFB"/>
<path d="M291.97 291.452C292.762 291.38 293.338 291.332 293.674 291.332C296.818 291.332 298.834 293.132 298.834 295.94C298.834 297.452 298.33 298.7 297.322 299.66C296.29 300.62 295.042 301.1 293.554 301.1C291.946 301.1 290.554 300.764 289.378 300.068L289.738 298.124C291.058 298.868 292.354 299.228 293.578 299.228C295.474 299.228 296.818 297.956 296.818 296.036C296.818 294.356 295.522 293.036 293.434 293.036C292.378 293.036 291.394 293.18 290.482 293.444L289.954 292.964L290.938 285.26H298.426L298.498 287.204H292.546L291.97 291.452ZM305.715 292.532C307.995 292.892 309.243 294.5 309.243 296.324C309.243 297.788 308.715 298.964 307.683 299.804C306.627 300.668 305.307 301.1 303.723 301.1C302.019 301.1 300.651 300.788 299.667 300.188L300.027 298.34C300.963 298.988 302.211 299.3 303.747 299.3C305.835 299.3 307.179 298.292 307.179 296.468C307.179 294.86 305.907 294.02 303.915 293.948C303.315 293.924 302.571 293.996 301.707 294.14V292.436C304.947 291.692 306.555 290.54 306.555 289.004C306.555 287.564 305.571 286.772 303.843 286.772C302.787 286.772 301.635 287.228 300.387 288.164L299.691 286.484C301.011 285.452 302.475 284.924 304.059 284.924C306.963 284.924 308.715 286.46 308.715 288.716C308.715 290.42 307.419 291.86 305.715 292.532ZM313.009 293.9C313.441 293.9 313.801 294.044 314.089 294.332C314.377 294.644 314.521 295.004 314.521 295.412C314.521 295.82 314.377 296.18 314.089 296.492C313.801 296.804 313.441 296.972 313.009 296.972C312.553 296.972 312.193 296.804 311.905 296.492C311.593 296.18 311.449 295.82 311.449 295.412C311.449 295.004 311.593 294.644 311.905 294.332C312.193 294.044 312.553 293.9 313.009 293.9ZM322.341 288.5C323.685 287.948 324.357 287.036 324.357 285.788C324.357 284.252 323.205 283.268 321.621 283.268C319.821 283.268 318.765 284.228 318.765 285.548C318.765 285.836 318.837 286.1 318.981 286.364C319.125 286.628 319.293 286.82 319.461 286.988C319.629 287.156 319.917 287.348 320.325 287.564C320.709 287.78 321.021 287.924 321.237 288.02C321.453 288.14 321.837 288.284 322.341 288.5ZM320.901 289.844C319.413 290.324 318.525 291.356 318.525 292.7C318.525 294.212 319.821 295.22 321.645 295.22C323.541 295.22 324.573 294.404 324.573 292.964C324.573 292.7 324.525 292.46 324.453 292.244C324.381 292.028 324.237 291.812 324.021 291.596C323.805 291.38 323.613 291.212 323.469 291.092C323.325 290.972 323.061 290.828 322.653 290.636C322.245 290.444 321.981 290.324 321.861 290.252C321.717 290.18 321.405 290.06 320.901 289.844ZM323.829 289.172C325.677 290.108 326.589 291.284 326.589 292.724C326.589 295.124 324.741 296.972 321.549 296.972C318.309 296.972 316.533 295.268 316.533 292.916C316.533 291.116 317.973 289.58 319.413 289.196C317.733 288.332 316.773 287.372 316.773 285.764C316.773 283.244 318.669 281.516 321.717 281.516C324.741 281.516 326.349 283.292 326.349 285.572C326.349 287.252 325.173 288.62 323.829 289.172ZM335.945 285.044C335.945 287.252 334.385 289.004 331.961 289.004C329.585 289.004 327.977 287.252 327.977 285.044C327.977 283.916 328.337 282.98 329.081 282.188C329.801 281.42 330.761 281.036 331.961 281.036C333.161 281.036 334.121 281.42 334.865 282.188C335.585 282.956 335.945 283.916 335.945 285.044ZM343.265 281.276L331.313 296.972H329.801L341.753 281.276H343.265ZM345.065 293.204C345.065 294.332 344.705 295.268 343.985 296.036C343.241 296.828 342.281 297.212 341.081 297.212C339.881 297.212 338.921 296.828 338.201 296.06C337.457 295.292 337.097 294.332 337.097 293.204C337.097 290.996 338.681 289.244 341.081 289.244C343.457 289.244 345.065 290.996 345.065 293.204ZM334.649 285.044C334.649 284.252 334.409 283.604 333.929 283.076C333.425 282.548 332.777 282.284 331.961 282.284C331.145 282.284 330.497 282.548 330.017 283.076C329.513 283.604 329.273 284.252 329.273 285.044C329.273 285.788 329.513 286.436 330.017 286.964C330.497 287.492 331.145 287.756 331.961 287.756C332.777 287.756 333.425 287.492 333.929 286.964C334.409 286.436 334.649 285.788 334.649 285.044ZM343.769 293.204C343.769 292.46 343.529 291.812 343.049 291.284C342.545 290.756 341.897 290.492 341.081 290.492C340.265 290.492 339.617 290.756 339.137 291.284C338.633 291.812 338.393 292.46 338.393 293.204C338.393 293.996 338.633 294.644 339.137 295.172C339.617 295.7 340.265 295.964 341.081 295.964C341.897 295.964 342.545 295.7 343.049 295.172C343.529 294.644 343.769 293.996 343.769 293.204Z" fill="#FBFBFB"/>
<path d="M12.3095 55.76L12.2375 53.888H9.95749V44.288H8.20548L0.453484 54.608L0.645484 55.76H8.03748V60.416H9.95749V55.76H12.3095ZM8.03748 53.888H3.21348L8.03748 47.36V53.888ZM13.616 50.12C13.616 47.936 14.336 45.968 15.752 44.216C17.168 42.488 19.184 41.312 21.848 40.688L22.448 42.56C18.728 43.496 16.496 45.368 15.752 48.176L15.8 48.2C16.88 47.216 18.152 46.712 19.616 46.712C22.088 46.712 24.008 48.608 24.008 51.368C24.008 54.272 21.992 56.36 18.896 56.36C17.24 56.36 15.968 55.76 15.032 54.56C14.096 53.384 13.616 51.896 13.616 50.12ZM15.704 50.744C15.704 52.856 17 54.536 18.992 54.536C20.816 54.536 22.016 53.288 22.016 51.464C22.016 49.664 20.816 48.464 19.088 48.464C17.792 48.464 16.568 49.064 15.824 49.736C15.752 50.024 15.704 50.36 15.704 50.744ZM27.4126 53.288C27.8446 53.288 28.2046 53.432 28.4926 53.72C28.7806 54.032 28.9246 54.392 28.9246 54.8C28.9246 55.208 28.7806 55.568 28.4926 55.88C28.2046 56.192 27.8446 56.36 27.4126 56.36C26.9566 56.36 26.5966 56.192 26.3086 55.88C25.9966 55.568 25.8526 55.208 25.8526 54.8C25.8526 54.392 25.9966 54.032 26.3086 53.72C26.5966 53.432 26.9566 53.288 27.4126 53.288ZM40.126 56H31.102V54.296C31.438 54.032 31.894 53.696 32.494 53.264C33.094 52.856 33.55 52.52 33.862 52.28C34.174 52.04 34.558 51.752 35.014 51.392C35.47 51.032 35.806 50.744 36.07 50.504C36.31 50.264 36.55 50 36.814 49.688C37.078 49.4 37.246 49.112 37.366 48.848C37.462 48.584 37.51 48.32 37.51 48.056C37.51 46.928 36.646 46.16 35.23 46.16C34.198 46.16 33.046 46.616 31.822 47.528L31.126 45.848C32.422 44.816 33.862 44.312 35.446 44.312C37.918 44.312 39.598 45.704 39.598 47.816C39.598 48.08 39.574 48.32 39.526 48.56C39.454 48.824 39.406 49.04 39.334 49.256C39.262 49.472 39.166 49.688 38.998 49.904C38.83 50.144 38.686 50.336 38.566 50.504C38.446 50.672 38.278 50.864 38.014 51.104C37.75 51.368 37.534 51.56 37.39 51.68C37.246 51.8 37.006 51.992 36.67 52.256C36.31 52.52 36.07 52.712 35.902 52.832C35.734 52.952 35.422 53.168 35.014 53.48C34.582 53.792 34.27 54.008 34.102 54.128H40.126V56ZM49.2708 44.432C49.2708 46.64 47.7108 48.392 45.2868 48.392C42.9108 48.392 41.3028 46.64 41.3028 44.432C41.3028 43.304 41.6628 42.368 42.4068 41.576C43.1268 40.808 44.0868 40.424 45.2868 40.424C46.4868 40.424 47.4468 40.808 48.1908 41.576C48.9108 42.344 49.2708 43.304 49.2708 44.432ZM56.5908 40.664L44.6388 56.36H43.1268L55.0788 40.664H56.5908ZM58.3908 52.592C58.3908 53.72 58.0308 54.656 57.3108 55.424C56.5668 56.216 55.6068 56.6 54.4068 56.6C53.2068 56.6 52.2468 56.216 51.5268 55.448C50.7828 54.68 50.4228 53.72 50.4228 52.592C50.4228 50.384 52.0068 48.632 54.4068 48.632C56.7828 48.632 58.3908 50.384 58.3908 52.592ZM47.9748 44.432C47.9748 43.64 47.7348 42.992 47.2548 42.464C46.7508 41.936 46.1028 41.672 45.2868 41.672C44.4708 41.672 43.8228 41.936 43.3428 42.464C42.8388 42.992 42.5988 43.64 42.5988 44.432C42.5988 45.176 42.8388 45.824 43.3428 46.352C43.8228 46.88 44.4708 47.144 45.2868 47.144C46.1028 47.144 46.7508 46.88 47.2548 46.352C47.7348 45.824 47.9748 45.176 47.9748 44.432ZM57.0948 52.592C57.0948 51.848 56.8548 51.2 56.3748 50.672C55.8708 50.144 55.2228 49.88 54.4068 49.88C53.5908 49.88 52.9428 50.144 52.4628 50.672C51.9588 51.2 51.7188 51.848 51.7188 52.592C51.7188 53.384 51.9588 54.032 52.4628 54.56C52.9428 55.088 53.5908 55.352 54.4068 55.352C55.2228 55.352 55.8708 55.088 56.3748 54.56C56.8548 54.032 57.0948 53.384 57.0948 52.592Z" fill="#FBFBFB"/>
<path d="M173.422 19.0274C142.205 19.0274 112.07 30.4686 88.7182 51.1866C65.3666 71.9046 50.4178 100.462 46.6999 131.458C42.982 162.453 50.7528 193.736 68.5421 219.389C86.3315 245.042 112.906 263.285 143.238 270.668L173.422 146.658V19.0274Z" fill="#EC8539" fill-opacity="0.2"/>
<path d="M173.421 19.0725C191.465 19.0725 209.303 22.8984 225.76 30.2978C242.217 37.6973 256.917 48.502 268.892 61.9992C280.867 75.4964 289.844 91.3794 295.231 108.6C300.618 125.821 302.292 143.988 300.143 161.904C297.994 179.819 292.071 197.075 282.764 212.533C273.458 227.992 260.979 241.301 246.152 251.583C231.324 261.866 214.485 268.887 196.745 272.185C179.006 275.482 160.768 274.981 143.236 270.713L173.421 146.703L173.421 19.0725Z" fill="#EC8539"/>
</svg>

<svg fill="none" height="303" viewBox="0 0 348 303" width="348" xmlns="http://www.w3.org/2000/svg"><g fill="#fbfbfb"><path d="m301.114 263.864-8.52-12.864h-1.728v15h1.488v-12.84l8.592 12.984h1.656v-15.144h-1.488zm15.153-3.384c0 1.728-.504 3.12-1.536 4.2s-2.304 1.632-3.864 1.632-2.832-.528-3.816-1.584-1.488-2.448-1.488-4.2c0-1.728.528-3.144 1.56-4.224s2.304-1.608 3.864-1.608 2.832.528 3.816 1.584 1.464 2.448 1.464 4.2zm-1.464.048c0-2.712-1.536-4.488-3.888-4.488-2.304 0-3.864 1.8-3.864 4.44 0 2.712 1.536 4.488 3.888 4.488 2.304 0 3.864-1.8 3.864-4.44z"/><path d="m12.3095 9.77527h-1.704l-4.24802 7.46403-4.32-7.46403h-1.727996l5.231996 8.97603v6.024h1.536v-6.024zm1.2476 9.55203v.12c.072 2.52 1.56 4.248 3.84 4.248 1.2 0 2.256-.312 3.192-.912l.288 1.368c-1.008.624-2.184.936-3.528.936-3.144 0-5.304-2.328-5.304-5.712 0-1.728.504-3.144 1.488-4.248s2.208-1.656 3.696-1.656c2.448 0 4.008 1.584 4.008 4.056 0 .648-.072 1.224-.24 1.752zm.096-1.176 6.096-.024c.024-.072.024-.24.024-.48 0-1.728-.936-2.832-2.64-2.832-1.896 0-3.216 1.416-3.48 3.336zm16.9854 3.624c0 1.992-1.68 3.312-3.936 3.312-1.368 0-2.568-.336-3.6-.984l.408-1.368c1.008.672 2.088 1.008 3.24 1.008 1.392 0 2.472-.696 2.472-1.848 0-.264-.048-.48-.168-.696s-.264-.384-.384-.504-.36-.24-.672-.384-.552-.24-.696-.288-.432-.144-.84-.264c-1.92-.576-3.192-1.392-3.192-3.12 0-1.968 1.56-3.168 3.72-3.168 1.176 0 2.28.264 3.336.816l-.432 1.344c-.984-.552-1.992-.816-3-.816-1.344 0-2.208.624-2.208 1.68 0 .24.048.456.168.648.12.216.24.36.36.48s.336.264.648.384c.288.12.528.216.696.288s.456.144.84.264c1.992.576 3.24 1.392 3.24 3.216z"/><path d="m291.97 291.452c.792-.072 1.368-.12 1.704-.12 3.144 0 5.16 1.8 5.16 4.608 0 1.512-.504 2.76-1.512 3.72-1.032.96-2.28 1.44-3.768 1.44-1.608 0-3-.336-4.176-1.032l.36-1.944c1.32.744 2.616 1.104 3.84 1.104 1.896 0 3.24-1.272 3.24-3.192 0-1.68-1.296-3-3.384-3-1.056 0-2.04.144-2.952.408l-.528-.48.984-7.704h7.488l.072 1.944h-5.952zm13.745 1.08c2.28.36 3.528 1.968 3.528 3.792 0 1.464-.528 2.64-1.56 3.48-1.056.864-2.376 1.296-3.96 1.296-1.704 0-3.072-.312-4.056-.912l.36-1.848c.936.648 2.184.96 3.72.96 2.088 0 3.432-1.008 3.432-2.832 0-1.608-1.272-2.448-3.264-2.52-.6-.024-1.344.048-2.208.192v-1.704c3.24-.744 4.848-1.896 4.848-3.432 0-1.44-.984-2.232-2.712-2.232-1.056 0-2.208.456-3.456 1.392l-.696-1.68c1.32-1.032 2.784-1.56 4.368-1.56 2.904 0 4.656 1.536 4.656 3.792 0 1.704-1.296 3.144-3 3.816zm7.294 1.368c.432 0 .792.144 1.08.432.288.312.432.672.432 1.08s-.144.768-.432 1.08-.648.48-1.08.48c-.456 0-.816-.168-1.104-.48-.312-.312-.456-.672-.456-1.08s.144-.768.456-1.08c.288-.288.648-.432 1.104-.432zm9.332-5.4c1.344-.552 2.016-1.464 2.016-2.712 0-1.536-1.152-2.52-2.736-2.52-1.8 0-2.856.96-2.856 2.28 0 .288.072.552.216.816s.312.456.48.624.456.36.864.576c.384.216.696.36.912.456.216.12.6.264 1.104.48zm-1.44 1.344c-1.488.48-2.376 1.512-2.376 2.856 0 1.512 1.296 2.52 3.12 2.52 1.896 0 2.928-.816 2.928-2.256 0-.264-.048-.504-.12-.72s-.216-.432-.432-.648-.408-.384-.552-.504-.408-.264-.816-.456-.672-.312-.792-.384c-.144-.072-.456-.192-.96-.408zm2.928-.672c1.848.936 2.76 2.112 2.76 3.552 0 2.4-1.848 4.248-5.04 4.248-3.24 0-5.016-1.704-5.016-4.056 0-1.8 1.44-3.336 2.88-3.72-1.68-.864-2.64-1.824-2.64-3.432 0-2.52 1.896-4.248 4.944-4.248 3.024 0 4.632 1.776 4.632 4.056 0 1.68-1.176 3.048-2.52 3.6zm12.116-4.128c0 2.208-1.56 3.96-3.984 3.96-2.376 0-3.984-1.752-3.984-3.96 0-1.128.36-2.064 1.104-2.856.72-.768 1.68-1.152 2.88-1.152s2.16.384 2.904 1.152c.72.768 1.08 1.728 1.08 2.856zm7.32-3.768-11.952 15.696h-1.512l11.952-15.696zm1.8 11.928c0 1.128-.36 2.064-1.08 2.832-.744.792-1.704 1.176-2.904 1.176s-2.16-.384-2.88-1.152c-.744-.768-1.104-1.728-1.104-2.856 0-2.208 1.584-3.96 3.984-3.96 2.376 0 3.984 1.752 3.984 3.96zm-10.416-8.16c0-.792-.24-1.44-.72-1.968-.504-.528-1.152-.792-1.968-.792s-1.464.264-1.944.792c-.504.528-.744 1.176-.744 1.968 0 .744.24 1.392.744 1.92.48.528 1.128.792 1.944.792s1.464-.264 1.968-.792c.48-.528.72-1.176.72-1.92zm9.12 8.16c0-.744-.24-1.392-.72-1.92-.504-.528-1.152-.792-1.968-.792s-1.464.264-1.944.792c-.504.528-.744 1.176-.744 1.92 0 .792.24 1.44.744 1.968.48.528 1.128.792 1.944.792s1.464-.264 1.968-.792c.48-.528.72-1.176.72-1.968z"/><path d="m12.3095 55.76-.072-1.872h-2.28001v-9.6h-1.75201l-7.751996 10.32.192 1.152h7.391996v4.656h1.92001v-4.656zm-4.27202-1.872h-4.824l4.824-6.528zm5.57852-3.768c0-2.184.72-4.152 2.136-5.904 1.416-1.728 3.432-2.904 6.096-3.528l.6 1.872c-3.72.936-5.952 2.808-6.696 5.616l.048.024c1.08-.984 2.352-1.488 3.816-1.488 2.472 0 4.392 1.896 4.392 4.656 0 2.904-2.016 4.992-5.112 4.992-1.656 0-2.928-.6-3.864-1.8-.936-1.176-1.416-2.664-1.416-4.44zm2.088.624c0 2.112 1.296 3.792 3.288 3.792 1.824 0 3.024-1.248 3.024-3.072 0-1.8-1.2-3-2.928-3-1.296 0-2.52.6-3.264 1.272-.072.288-.12.624-.12 1.008zm11.7086 2.544c.432 0 .792.144 1.08.432.288.312.432.672.432 1.08s-.144.768-.432 1.08-.648.48-1.08.48c-.456 0-.816-.168-1.104-.48-.312-.312-.456-.672-.456-1.08s.144-.768.456-1.08c.288-.288.648-.432 1.104-.432zm12.7134 2.712h-9.024v-1.704c.336-.264.792-.6 1.392-1.032.6-.408 1.056-.744 1.368-.984s.696-.528 1.152-.888.792-.648 1.056-.888c.24-.24.48-.504.744-.816.264-.288.432-.576.552-.84.096-.264.144-.528.144-.792 0-1.128-.864-1.896-2.28-1.896-1.032 0-2.184.456-3.408 1.368l-.696-1.68c1.296-1.032 2.736-1.536 4.32-1.536 2.472 0 4.152 1.392 4.152 3.504 0 .264-.024.504-.072.744-.072.264-.12.48-.192.696s-.168.432-.336.648c-.168.24-.312.432-.432.6s-.288.36-.552.6c-.264.264-.48.456-.624.576s-.384.312-.72.576c-.36.264-.6.456-.768.576s-.48.336-.888.648c-.432.312-.744.528-.912.648h6.024zm9.1448-11.568c0 2.208-1.56 3.96-3.984 3.96-2.376 0-3.984-1.752-3.984-3.96 0-1.128.36-2.064 1.104-2.856.72-.768 1.68-1.152 2.88-1.152s2.16.384 2.904 1.152c.72.768 1.08 1.728 1.08 2.856zm7.32-3.768-11.952 15.696h-1.512l11.952-15.696zm1.8 11.928c0 1.128-.36 2.064-1.08 2.832-.744.792-1.704 1.176-2.904 1.176s-2.16-.384-2.88-1.152c-.744-.768-1.104-1.728-1.104-2.856 0-2.208 1.584-3.96 3.984-3.96 2.376 0 3.984 1.752 3.984 3.96zm-10.416-8.16c0-.792-.24-1.44-.72-1.968-.504-.528-1.152-.792-1.968-.792s-1.464.264-1.944.792c-.504.528-.744 1.176-.744 1.968 0 .744.24 1.392.744 1.92.48.528 1.128.792 1.944.792s1.464-.264 1.968-.792c.48-.528.72-1.176.72-1.92zm9.12 8.16c0-.744-.24-1.392-.72-1.92-.504-.528-1.152-.792-1.968-.792s-1.464.264-1.944.792c-.504.528-.744 1.176-.744 1.92 0 .792.24 1.44.744 1.968.48.528 1.128.792 1.944.792s1.464-.264 1.968-.792c.48-.528.72-1.176.72-1.968z"/></g><path d="m173.422 19.0274c-31.217 0-61.352 11.4412-84.7038 32.1592-23.3516 20.718-38.3004 49.2754-42.0183 80.2714-3.7179 30.995 4.0529 62.278 21.8422 87.931 17.7894 25.653 44.3639 43.896 74.6959 51.279l30.184-124.01z" fill="#ec8539" fill-opacity=".2"/><path d="m173.421 19.0725c18.044 0 35.882 3.8259 52.339 11.2253 16.457 7.3995 31.157 18.2042 43.132 31.7014s20.952 29.3802 26.339 46.6008c5.387 17.221 7.061 35.388 4.912 53.304-2.149 17.915-8.072 35.171-17.379 50.629-9.306 15.459-21.785 28.768-36.612 39.05-14.828 10.283-31.667 17.304-49.407 20.602-17.739 3.297-35.977 2.796-53.509-1.472l30.185-124.01z" fill="#ec8539"/></svg>
